public/google-icon.svg

<svg width="60" height="60" viewBox="0 0 60 60" fill="none" xmlns="http://www.w3.org/2000/svg">
<path d="M54.5137 25.1037H52.5V25H30V35H44.1287C42.0675 40.8212 36.5287 45 30 45C21.7162 45 15 38.2837 15 30C15 21.7162 21.7162 15 30 15C33.8237 15 37.3025 16.4425 39.9512 18.7987L47.0225 11.7275C42.5575 7.56625 36.585 5 30 5C16.1937 5 5 16.1937 5 30C5 43.8062 16.1937 55 30 55C43.8062 55 55 43.8062 55 30C55 28.3237 54.8275 26.6875 54.5137 25.1037Z" fill="#FBC02D"/>
<path d="M7.88245 18.3638L16.0962 24.3875C18.3187 18.885 23.7012 15 29.9999 15C33.8237 15 37.3024 16.4425 39.9512 18.7987L47.0224 11.7275C42.5574 7.56625 36.5849 5 29.9999 5C20.3974 5 12.0699 10.4212 7.88245 18.3638Z" fill="#E53935"/>
<path d="M30 54.9999C36.4575 54.9999 42.325 52.5286 46.7613 48.5099L39.0238 41.9624C36.5138 43.8636 33.3938 44.9999 30 44.9999C23.4975 44.9999 17.9763 40.8536 15.8963 35.0674L7.74377 41.3486C11.8813 49.4449 20.2838 54.9999 30 54.9999Z" fill="#4CAF50"/>
<path d="M54.5137 25.1038L54.4937 25H52.5H30V35H44.1288C43.1388 37.7963 41.34 40.2075 39.02 41.9637L39.0237 41.9613L46.7612 48.5087C46.2137 49.0062 55 42.5 55 30C55 28.3238 54.8275 26.6875 54.5137 25.1038Z" fill="#1565C0"/>
</svg>

<svg width="60" height="60" fill="none" xmlns="http://www.w3.org/2000/svg"><path d="M54.514 25.104H52.5V25H30v10h14.129c-2.061 5.821-7.6 10-14.129 10-8.284 0-15-6.716-15-15 0-8.284 6.716-15 15-15a14.92 14.92 0 0 1 9.951 3.799l7.072-7.072C42.556 7.567 36.584 5 30 5 16.194 5 5 16.194 5 30s11.194 25 25 25 25-11.194 25-25c0-1.676-.172-3.313-.486-4.896Z" fill="#FBC02D"/><path d="m7.882 18.364 8.214 6.023C18.32 18.886 23.701 15 30 15a14.92 14.92 0 0 1 9.951 3.799l7.071-7.072C42.557 7.567 36.585 5 30 5c-9.603 0-17.93 5.421-22.118 13.364Z" fill="#E53935"/><path d="M30 55c6.458 0 12.325-2.471 16.761-6.49l-7.737-6.548A14.888 14.888 0 0 1 30 45c-6.503 0-12.024-4.146-14.104-9.933L7.744 41.35c4.137 8.096 12.54 13.65 22.256 13.65Z" fill="#4CAF50"/><path d="m54.514 25.104-.02-.104H30v10h14.129a15.05 15.05 0 0 1-5.109 6.964l.004-.003 7.737 6.548C46.214 49.006 55 42.5 55 30c0-1.676-.172-3.313-.486-4.896Z" fill="#1565C0"/></svg>
